X:1
T:Title
%%score { 1 | 2 }
L:1/8
Q:1/4=100
M:4/4
K:G
V:1 treble nm="Grand Piano"
V:2 treble 
V:1
 .B2 .B2 .B2 .B2 | [Bd]>[ce] [Bd]>[Ac] B>A G2 | F>[EG] [FA]>[GB] [Ac]4 | G>A B>[Ac] [Bd]4 | %4
w: H.~R.~Palmer * * *||||
 .B2 .B2 .B2 .B2 | [Bd]>[ce] [DBd]>[DAc] [DGB]>[CDA] [B,DG]2 | %6
w: ||
 [CGA]>[EGc] [DGB]>[CEA] [B,DG]2 [A,CF]2 | [B,G]6 z2 | .[DFA]2 .[DFA]2 .[DFA]2 .[DFA]2 | %9
w: |||
 [^CGA]>[CEB] [A,CA]>[A,EG] [A,DF]>[K:bass][G,DE] [F,D]2 | .[DFA]2 .A2 .B2 .B2 | d>^c B>c [Fd]4 | %12
w: |||
 .[FA]2 .[FA]2 .[FA]2 .[FA]2 | [^CGA]>[CEB] [CA]>[EG] F>E D2 | [Fd]2 [Ad]2 ^c>A B>c | %15
w: |||
[M:1/4] [DGd]2 |[M:3/4] AB ce dc |[M:4/4] .B2 .B2 .B2 .B2 | [Bd]>[ce] [Bd]>[Ac] B>A G2 | %19
w: ||||
 F>[EG] [FA]>[GB] [Ac]4 | G>A B>[Ac] [Bd]4 | .B2 .B2 .B2 .B2 | %22
w: |||
 [Bd]>[ce] [DBd]>[DAc] [DGB]>[CDA] [B,DG]2 | [CGA]>[EGc] [DGB]>[CEA] [B,DG]2 [A,CF]2 | [B,G]6 z2 |] %25
w: |||
V:2
 .[G,DG]2 .[G,DG]2 .[G,DG]2 .[G,DG]2 | [G,D]>[G,D] [G,D]>[G,D] [G,DG]>[K:bass][G,CD] [G,B,D]2 | %2
 [D,CD]>[D,B,] [D,A,]>[D,G,] [D,F,]4 | [G,B,D]>[G,CF] [G,B,G]>[G,A,] G,4 | %4
 .[G,DG]2 .[G,DG]2 .[G,DG]2 .[G,DG]2 | [G,D]>[G,D] G,>G, G,>G, G,2 | C,>C, C,>C, D,2 D,2 | G,6 z2 | %8
 .D,2 .D,2 .D,2 .D,2 | A,,>A,, A,,>A,, D,>D, D,2 | .D,2 .[F,D]2[K:treble] .[G,DG]2 .[B,D]2 | %11
 [A,EG]>[A,EG] [A,EG]>[A,EG][K:bass] [D,D]4 | .[D,D]2 .[D,D]2 .[D,D]2 .[D,D]2 | %13
 A,,>A,, [A,,A,]>[A,,A,] [D,A,D]>[D,G,D] [D,F,]2 | %14
 [D,A,]2 [F,D]2[K:treble] [A,EG]>[A,EG] [A,EG]>[A,EG] |[M:1/4] D,2 |[M:3/4] FG Ac BA | %17
[M:4/4] .[G,DG]2 .[G,DG]2 .[G,DG]2 .[G,DG]2 | %18
 [G,D]>[G,D] [G,D]>[G,D] [G,DG]>[K:bass][G,CD] [G,B,D]2 | [D,CD]>[D,B,] [D,A,]>[D,G,] [D,F,]4 | %20
 [G,B,D]>[G,CF] [G,B,G]>[G,A,] G,4 | .[G,DG]2 .[G,DG]2 .[G,DG]2 .[G,DG]2 | %22
 [G,D]>[G,D] G,>G, G,>G, G,2 | C,>C, C,>C, D,2 D,2 | G,6 z2 |] %25

